app/static/img/Trendit/Logo_Default.svg

<svg width="133" height="52" viewBox="0 0 133 52" fill="none" xmlns="http://www.w3.org/2000/svg">
<g clip-path="url(#clip0_2009_58)">
<path d="M29.5866 29.488L25.7531 31.7582C23.9338 30.0894 20.4441 28.9001 18.0372 28.5516L18.0372 51.8038L14.0289 51.8038L14.0289 28.5516C11.566 29.0308 8.43797 30.1511 6.5134 31.7582L2.58899 29.488C6.14394 25.8772 10.6898 23.9817 15.8326 23.9421C20.877 23.9032 26.0473 25.8792 29.5866 29.488Z" fill="white"/>
<path fill-rule="evenodd" clip-rule="evenodd" d="M6.55916 20.2125C8.55346 18.7229 10.2127 16.8313 11.5369 14.5378C12.8624 12.2451 13.671 9.86232 13.9625 7.38958C14.254 4.91685 14.094 2.48461 13.4825 0.0928649L9.0743 2.55185C9.28779 3.78713 9.33953 5.02168 9.22952 6.25552C9.1195 7.48936 8.83036 8.71245 8.36209 9.92478L2.45483 3.54467L8.4494e-06 4.90742L8.43671e-06 7.7128L5.9545 14.0948C5.13872 15.1066 4.22407 15.9685 3.21054 16.6807C2.19701 17.3929 1.17654 18.0022 8.38993e-06 18.4349L9.24402e-08 23.2449C2.37845 22.5794 4.56486 21.7022 6.55916 20.2125Z" fill="#FF6DFB"/>
<path fill-rule="evenodd" clip-rule="evenodd" d="M26.3088 20.2125C24.3145 18.7229 22.6552 16.8313 21.3311 14.5378C20.0055 12.2451 19.1969 9.86232 18.9054 7.38958C18.6139 4.91685 18.7739 2.48461 19.3854 0.0928649L23.7936 2.55185C23.5801 3.78713 23.5284 5.02168 23.6384 6.25552C23.7484 7.48936 24.0376 8.71245 24.5058 9.92478L30.4131 3.54467L32.8679 4.90742L32.8679 7.7128L26.9134 14.0948C27.7292 15.1066 28.6439 15.9685 29.6574 16.6807C30.6709 17.3929 31.6914 18.0022 32.8679 18.4349L32.8679 23.2449C30.4895 22.5794 28.3031 21.7022 26.3088 20.2125Z" fill="#FF6DFB"/>
<path d="M32.4606 35.6759C34.1152 33.8673 36.3855 32.8284 39.156 32.8284V36.5994C36.2701 36.7148 34.0767 38.4601 32.4606 40.5764V51.8998H28.4587L28.4587 32.159H32.4606V35.6759Z" fill="white"/>
<path d="M48.2051 32.8909C54.2079 32.8909 57.9404 37.47 57.1708 43.5882H42.2873C42.6721 46.3203 45.0498 48.4928 48.436 48.4928C50.206 48.4928 52.2783 47.4426 53.0094 46.2882H56.9175C55.7631 49.559 52.3609 51.8998 48.436 51.8998C42.741 51.8998 38.8931 47.7825 38.8931 42.3954C38.8931 37.0467 42.7025 32.8909 48.2051 32.8909ZM48.2436 36.2771C45.2422 36.2771 43.0889 38.0713 42.2873 40.8177H54.2119C53.7109 37.971 51.0526 36.2771 48.2436 36.2771Z" fill="white"/>
<path d="M69.1708 32.7539C73.8653 32.7539 77.059 35.9861 77.059 41.2193V51.9022H73.0572V41.4502C73.0572 38.141 71.2871 36.3709 68.3627 36.3709C66.6311 36.3709 64.7456 37.3329 63.3219 39.103V51.9022H59.32V32.1615H63.3219V34.8317C64.8995 33.485 66.862 32.7539 69.1708 32.7539Z" fill="white"/>
<path d="M93.9739 24.0423H97.9372V51.8998H93.9739V49.9758C92.4347 51.2072 90.4722 51.8998 88.1635 51.8998C83.0842 51.8998 79.0054 47.6671 79.0054 42.3569C79.0054 37.1237 83.0842 32.891 88.1635 32.891C90.4722 32.891 92.4347 33.5836 93.9739 34.7764V24.0423ZM88.4826 48.593C92.096 48.454 94.7957 45.9404 94.7957 42.3569C94.7957 38.8398 92.0585 36.1673 88.4826 36.1673C85.1734 36.1673 82.37 39.1631 82.37 42.3569C82.37 45.5892 85.1734 48.593 88.4826 48.593Z" fill="white"/>
<path d="M102.539 28.9677C101.115 28.9677 99.9995 27.9287 99.9995 26.505C99.9995 25.0812 101.115 24.0423 102.539 24.0423C103.924 24.0423 105.079 25.0812 105.079 26.505C105.079 27.9287 103.924 28.9677 102.539 28.9677ZM100.611 32.159H104.575V51.8998H100.611V32.159Z" fill="white"/>
<path d="M120.673 47.5228L121.25 51.1783C119.673 51.7555 118.364 51.9094 117.133 51.9094C112.515 51.9094 110.053 49.1389 110.053 44.4829V35.5068H104.575V32.159H110.053V24.0423H114.055V32.159H119.338V35.5068H114.055V44.4829C114.055 47.0995 115.363 48.2154 117.595 48.2154C118.672 48.2154 119.75 47.9076 120.673 47.5228Z" fill="white"/>
<path d="M122.991 14.7231C124.463 14.8999 125.728 14.9884 126.784 14.9884C128.986 14.9884 130.815 14.922 132.273 14.7894C132.199 14.9663 132.087 15.2095 131.938 15.519C131.79 15.8285 131.418 16.4181 130.823 17.2878C130.228 18.1427 129.558 18.946 128.814 19.6977C129.35 19.6977 129.848 19.8525 130.309 20.162C130.518 20.2947 130.704 20.5084 130.867 20.8032C131.031 21.0833 131.113 21.4591 131.113 21.9308C131.113 22.3877 131.001 22.8668 130.778 23.3679C130.57 23.8544 130.22 24.3481 129.729 24.8493C128.718 25.9106 126.903 26.677 124.285 27.1487C123.734 26.7212 123.206 26.139 122.701 25.402C122.195 24.6798 121.83 24.0607 121.607 23.5448L121.25 22.7489C122.663 23.1026 123.891 23.2795 124.932 23.2795C126.167 23.2795 126.992 23.0879 127.409 22.7047C127.602 22.5278 127.699 22.3362 127.699 22.1298C127.699 21.7613 127.409 21.5107 126.829 21.3781C126.457 21.3044 126.1 21.2675 125.758 21.2675L124.731 21.3339C124.493 21.3339 124.329 21.297 124.24 21.2233L127.297 18.3712C126.345 18.3712 125.423 18.4522 124.53 18.6144C123.638 18.7765 122.983 18.9386 122.567 19.1008L121.942 19.344C122.641 17.6489 122.991 16.1086 122.991 14.7231Z" fill="white"/>
</g>
<defs>
<clipPath id="clip0_2009_58">
<rect width="132.273" height="51.9071" fill="white" transform="translate(0 0.092865)"/>
</clipPath>
</defs>
</svg>

<svg xmlns="http://www.w3.org/2000/svg" width="133" height="52" fill="none" xmlns:v="https://vecta.io/nano"><g clip-path="url(#A)"><path d="M29.587 29.488l-3.834 2.27c-1.819-1.669-5.309-2.858-7.716-3.207v23.252h-4.008V28.552c-2.463.479-5.591 1.599-7.515 3.207l-3.924-2.27c3.555-3.611 8.101-5.506 13.244-5.546 5.044-.039 10.215 1.937 13.754 5.546z" fill="#fff"/><g fill-rule="evenodd" fill="#ff6dfb"><path d="M6.559 20.213c1.994-1.49 3.654-3.381 4.978-5.675s2.134-4.675 2.426-7.148.131-4.905-.48-7.297L9.074 2.552a14.26 14.26 0 0 1 .155 3.704c-.11 1.234-.399 2.457-.867 3.669l-5.907-6.38L0 4.907v2.805l5.954 6.382c-.816 1.012-1.73 1.874-2.744 2.586S1.177 18.002 0 18.435v4.81c2.378-.666 4.565-1.543 6.559-3.032zm19.75 0c-1.994-1.49-3.654-3.381-4.978-5.675s-2.134-4.675-2.426-7.148-.131-4.905.48-7.297l4.408 2.459a14.26 14.26 0 0 0-.155 3.704c.11 1.234.399 2.457.867 3.669l5.907-6.38 2.455 1.363v2.805l-5.954 6.382c.816 1.012 1.73 1.874 2.744 2.586s2.034 1.321 3.21 1.754v4.81c-2.378-.666-4.565-1.543-6.559-3.032z"/></g><g fill="#fff"><path d="M32.461 35.676c1.655-1.809 3.925-2.847 6.695-2.847V36.6c-2.886.115-5.079 1.861-6.695 3.977V51.9h-4.002V32.159h4.002v3.517zm15.744-2.785c6.003 0 9.735 4.579 8.966 10.697H42.287c.385 2.732 2.762 4.905 6.149 4.905 1.77 0 3.842-1.05 4.573-2.205h3.908c-1.154 3.271-4.557 5.612-8.481 5.612-5.695 0-9.543-4.117-9.543-9.504 0-5.349 3.809-9.504 9.312-9.504zm.038 3.386c-3.001 0-5.155 1.794-5.956 4.541h11.925c-.501-2.847-3.159-4.541-5.968-4.541zm20.928-3.523c4.695 0 7.888 3.232 7.888 8.465v10.683h-4.002V41.45c0-3.309-1.77-5.079-4.694-5.079-1.732 0-3.617.962-5.041 2.732v12.799H59.32V32.161h4.002v2.67c1.578-1.347 3.54-2.078 5.849-2.078zm24.803-8.712h3.963V51.9h-3.963v-1.924c-1.539 1.231-3.502 1.924-5.81 1.924-5.079 0-9.158-4.233-9.158-9.543 0-5.233 4.079-9.466 9.158-9.466 2.309 0 4.271.693 5.81 1.885V24.042zm-5.491 24.551c3.613-.139 6.313-2.653 6.313-6.236 0-3.517-2.737-6.19-6.313-6.19-3.309 0-6.113 2.996-6.113 6.19 0 3.232 2.803 6.236 6.113 6.236zm14.056-19.625c-1.424 0-2.54-1.039-2.54-2.463s1.115-2.463 2.54-2.463c1.385 0 2.54 1.039 2.54 2.463s-1.155 2.463-2.54 2.463zm-1.928 3.191h3.964V51.9h-3.964V32.159z"/><path d="M120.673 47.523l.577 3.656a11.5 11.5 0 0 1-4.117.731c-4.618 0-7.08-2.77-7.08-7.426v-8.976h-5.478V32.16h5.478v-8.117h4.002v8.117h5.283v3.348h-5.283v8.976c0 2.617 1.308 3.733 3.54 3.733 1.077 0 2.155-.308 3.078-.693zm2.318-32.8l3.793.265 5.489-.199-.335.73c-.148.309-.52.899-1.115 1.769a18.21 18.21 0 0 1-2.009 2.41 2.63 2.63 0 0 1 1.495.464c.209.133.395.346.558.641.164.28.246.656.246 1.128 0 .457-.112.936-.335 1.437-.208.486-.558.98-1.049 1.481-1.011 1.061-2.826 1.828-5.444 2.299-.551-.428-1.079-1.01-1.584-1.747-.506-.722-.871-1.341-1.094-1.857l-.357-.796c1.413.354 2.641.531 3.682.531 1.235 0 2.06-.192 2.477-.575.193-.177.29-.368.29-.575 0-.369-.29-.619-.87-.752a5.51 5.51 0 0 0-1.071-.111l-1.027.066c-.238 0-.402-.037-.491-.111l3.057-2.852a15.47 15.47 0 0 0-2.767.243c-.893.162-1.547.324-1.963.486l-.625.243c.699-1.695 1.049-3.235 1.049-4.621z"/></g></g><defs><clipPath id="A"><path fill="#fff" transform="translate(0 .093)" d="M0 0h132.273v51.907H0z"/></clipPath></defs></svg>
